icons/evolvere-blue-folders-flat-vivid-dark-fallback/apps/64/freebsd.svg

<?xml version="1.0" encoding="UTF-8" standalone="no"?>
<!-- Created with Inkscape (http://www.inkscape.org/) -->

<svg
   xmlns:dc="http://purl.org/dc/elements/1.1/"
   xmlns:cc="http://creativecommons.org/ns#"
   xmlns:rdf="http://www.w3.org/1999/02/22-rdf-syntax-ns#"
   xmlns:svg="http://www.w3.org/2000/svg"
   xmlns="http://www.w3.org/2000/svg"
   xmlns:xlink="http://www.w3.org/1999/xlink"
   xmlns:sodipodi="http://sodipodi.sourceforge.net/DTD/sodipodi-0.dtd"
   xmlns:inkscape="http://www.inkscape.org/namespaces/inkscape"
   width="64"
   height="64"
   id="svg13094"
   version="1.1"
   inkscape:version="0.48.4 r9939"
   sodipodi:docname="freebsd.svg">
  <sodipodi:namedview
     id="base"
     pagecolor="#ffffff"
     bordercolor="#666666"
     borderopacity="1.0"
     inkscape:pageopacity="0"
     inkscape:pageshadow="2"
     inkscape:zoom="11.313709"
     inkscape:cx="17.485212"
     inkscape:cy="31.680417"
     inkscape:document-units="px"
     inkscape:current-layer="svg13094"
     showgrid="true"
     inkscape:snap-bbox="true"
     inkscape:bbox-paths="true"
     inkscape:bbox-nodes="true"
     inkscape:snap-bbox-edge-midpoints="true"
     inkscape:snap-bbox-midpoints="true"
     inkscape:object-paths="true"
     inkscape:snap-intersection-paths="true"
     inkscape:object-nodes="true"
     inkscape:snap-smooth-nodes="true"
     inkscape:snap-midpoints="true"
     inkscape:snap-object-midpoints="true"
     inkscape:snap-center="true"
     showguides="true"
     inkscape:guide-bbox="true"
     inkscape:window-width="1920"
     inkscape:window-height="1025"
     inkscape:window-x="-2"
     inkscape:window-y="32"
     inkscape:window-maximized="1"
     inkscape:snap-global="true"
     fit-margin-top="0"
     fit-margin-left="0"
     fit-margin-right="0"
     fit-margin-bottom="0"
     showborder="true"
     inkscape:showpageshadow="false"
     inkscape:snap-page="true">
    <inkscape:grid
       type="xygrid"
       id="grid3075"
       empspacing="5"
       visible="true"
       enabled="true"
       snapvisiblegridlinesonly="true"
       originx="1.6362304e-08px"
       originy="18px" />
  </sodipodi:namedview>
  <defs
     id="defs13096">
    <linearGradient
       id="linearGradient5602-41-4-5-6">
      <stop
         id="stop5604-6-7-9-6"
         style="stop-color:#f8b148;stop-opacity:1"
         offset="0" />
      <stop
         id="stop5606-8-7-1-1"
         style="stop-color:#b31c1c;stop-opacity:0"
         offset="1" />
    </linearGradient>
    <radialGradient
       inkscape:collect="always"
       xlink:href="#linearGradient5602-41-4-5-6"
       id="radialGradient3988"
       gradientUnits="userSpaceOnUse"
       gradientTransform="matrix(0,1.2666667,-1.1875,0,72.757979,0.6397159)"
       cx="20.021276"
       cy="36.006718"
       fx="20.021276"
       fy="36.006718"
       r="32" />
  </defs>
  <metadata
     id="metadata13099">
    <rdf:RDF>
      <cc:Work
         rdf:about="">
        <dc:format>image/svg+xml</dc:format>
        <dc:type
           rdf:resource="http://purl.org/dc/dcmitype/StillImage" />
        <dc:title />
      </cc:Work>
    </rdf:RDF>
  </metadata>
  <path
     style="color:#000000;fill:#951414;fill-opacity:1;fill-rule:nonzero;stroke:none;stroke-width:2.28571415000000000;marker:none;visibility:visible;display:inline;overflow:visible;enable-background:accumulate"
     d="M 0 4 L 0 34 L 0 62 L 2 64 L 32 64 L 62 64 L 64 62 L 64 34 L 64 4 L 32 4 L 0 4 z "
     id="path6498" />
  <path
     style="color:#000000;fill:#dd3332;fill-opacity:1;fill-rule:nonzero;stroke:none;marker:none;visibility:visible;display:inline;overflow:visible;enable-background:accumulate"
     d="M 2 0 L 0 1 L 0 4 L 32 4 L 64 4 L 64 1 L 62 0 L 32 0 L 2 0 z "
     id="path6502" />
  <path
     d="M 64,6 62,4 64,3 z"
     id="path3028"
     style="fill:#b52222;fill-opacity:1"
     inkscape:connector-curvature="0" />
  <g
     id="g3043"
     inkscape:export-filename="folder.png"
     inkscape:export-xdpi="90"
     inkscape:export-ydpi="90"
     transform="translate(-0.62500009,0.082283)" />
  <g
     id="scalable"
     transform="matrix(1.0385892,0,0,1.0385892,1214.7222,1878.8121)"
     inkscape:label="#g3701"
     style="fill:#ffffff" />
  <path
     inkscape:connector-curvature="0"
     d="m 14.375,13.84375 c -0.688304,-0.01423 -1.258757,0.133822 -1.625,0.5 -1.484158,1.483895 0.644804,6.195374 2.5,9.4375 1.65102,-2.870562 3.995807,-5.266994 6.8125,-7 -2.426865,-1.377011 -5.622588,-2.894819 -7.6875,-2.9375 z m 35.5625,0.25 c -3.470648,0.34623 -9.755237,4.379809 -10.5625,5.1875 -0.993292,0.993029 -0.0883,3.50624 2.03125,5.625 2.119286,2.119551 4.631708,3.022965 5.625,2.03125 0.993292,-0.993818 6.869549,-10.287227 4.75,-12.40625 -0.397415,-0.397366 -1.042831,-0.517399 -1.84375,-0.4375 z M 32.75,14.75 C 22.123088,14.75 13.5,23.372037 13.5,34 13.5,44.626649 22.122825,53.21875 32.75,53.21875 43.377175,53.21875 52,44.626912 52,34 c 0,-3.431851 -0.894987,-6.678598 -2.46875,-9.46875 -0.340295,0.620676 -0.666821,1.200051 -0.96875,1.6875 0.29825,1.011161 0.232456,1.861557 -0.25,2.34375 -1.129673,1.12941 -4.188604,-0.07105 -6.9375,-2.6875 -0.191564,-0.171593 -0.375141,-0.375141 -0.5625,-0.5625 -0.993292,-0.994344 -1.755456,-2.056615 -2.25,-3.03125 -0.962547,-1.726962 -1.196638,-3.241124 -0.46875,-3.96875 0.396266,-0.396266 1.007375,-0.514271 1.78125,-0.375 0.504529,-0.31901 1.096214,-0.667305 1.75,-1.03125 C 38.968075,15.520634 35.954812,14.75 32.75,14.75 z"
     id="path3119"
     style="color:#000000;fill:#ff9638;fill-opacity:1;fill-rule:nonzero;stroke:none;stroke-width:2.28571415000000000;marker:none;visibility:visible;display:inline;overflow:visible;enable-background:accumulate" />
  <path
     style="fill:#e85958;fill-opacity:1;fill-rule:nonzero"
     d="M 0,3 0,6 2,4 z"
     id="path4298"
     inkscape:connector-curvature="0"
     sodipodi:nodetypes="cccc" />
</svg>

<svg xmlns="http://www.w3.org/2000/svg" viewBox="0 0 64 64"><g color="#000"><path d="m0 4v30 28l2 2h30 30l2-2v-28-30h-32-32" fill="#951414"/><path d="m2 0l-2 1v3h32 32v-3l-2-1h-30-30" fill="#dd3332"/></g><path d="m64 6l-2-2 2-1z" fill="#b52222"/><path d="m14.375 13.844c-.688-.014-1.259.134-1.625.5-1.484 1.484.645 6.195 2.5 9.438 1.651-2.871 3.996-5.267 6.813-7-2.427-1.377-5.623-2.895-7.688-2.938m35.563.25c-3.471.346-9.755 4.38-10.563 5.188-.993.993-.088 3.506 2.031 5.625 2.119 2.12 4.632 3.02 5.625 2.031.993-.994 6.87-10.287 4.75-12.406-.397-.397-1.043-.517-1.844-.438m-17.188.656c-10.627 0-19.25 8.622-19.25 19.25 0 10.627 8.623 19.219 19.25 19.219 10.627 0 19.25-8.592 19.25-19.219 0-3.432-.895-6.679-2.469-9.469-.34.621-.667 1.2-.969 1.688.298 1.011.232 1.862-.25 2.344-1.13 1.129-4.189-.071-6.938-2.688-.192-.172-.375-.375-.563-.563-.993-.994-1.755-2.057-2.25-3.03-.963-1.727-1.197-3.241-.469-3.969.396-.396 1.01-.514 1.781-.375.505-.319 1.096-.667 1.75-1.031-2.657-1.386-5.67-2.156-8.875-2.156" fill="#ff9638" color="#000"/><path d="m0 3v3l2-2z" fill="#e85958"/></svg>
